;FLAVOR:RepRap
;TIME:795
;Filament used: 0.359353m
;Layer height: 0.2
;Generated with Cura_SteamEngine 0.0.0-master
M190 S60
M104 S210
M109 S210
G21 ;metric values
 G90 ;absolute positioning
 M82 ;set extruder to absolute mode
 M107 ;start with the fan off
 G28 X0 Y0 ;move X/Y to min endstops
 G28 Z0 ;move Z to min endstops
 G1 Z15.0 F{travel_speed} ;move the platform down 15mm
 G92 E0 ;zero the extruded length
 G1 F200 E6 ;extrude 6 mm of feed stock
 G92 E0 ;zero the extruded length again
 G1 F{travel_speed} 
 ;Put printing message on LCD screen
 M117 Printing...
;LAYER_COUNT:8
;LAYER:0
M107
G0 F3600 X74.551 Y94.29 Z0.149
G0 X74.256 Y97.109
;TYPE:SKIRT
G1 F900 X74.097 Y96.875 E0.00706
G1 X73.983 Y96.617 E0.01409
G1 X73.891 Y96.354 E0.02104
G1 X73.804 Y95.985 E0.0305
G1 X73.797 Y95.607 E0.03993
G1 X73.868 Y95.235 E0.04938
G1 X74.017 Y94.886 E0.05884
G1 X74.234 Y94.576 E0.06828
G1 X74.551 Y94.29 E0.07893
G1 X75.419 Y93.676 E0.10546
G1 X75.749 Y93.491 E0.11489
G1 X76.193 Y93.366 E0.1264
G1 X76.616 Y93.303 E0.13707
G1 X76.928 Y93.284 E0.14487
G1 X87.787 Y93.567 E0.41584
G1 X87.787 Y93.566 E0.41586
G1 X102.864 Y93.818 E0.79201
G1 X103.379 Y93.775 E0.8049
G1 X103.718 Y93.639 E0.81401
G1 X104.144 Y93.312 E0.82741
G1 X104.62 Y92.704 E0.84667
G1 X104.699 Y92.61 E0.84973
G1 X106.735 Y90.346 E0.92569
G1 X107.115 Y90.026 E0.93808
G1 X109.677 Y88.415 E1.01357
G1 X110.128 Y88.212 E1.02591
G1 X113.039 Y87.358 E1.10159
G1 X113.529 Y87.285 E1.11395
G1 X116.557 Y87.256 E1.18948
G1 X117.05 Y87.32 E1.20188
G1 X119.971 Y88.121 E1.27744
G1 X120.426 Y88.316 E1.28979
G1 X123.015 Y89.88 E1.36524
G1 X123.401 Y90.194 E1.37765
G1 X125.469 Y92.412 E1.4533
G1 X125.754 Y92.818 E1.46567
G1 X127.135 Y95.513 E1.54121
G1 X127.298 Y95.979 E1.55353
G1 X127.896 Y98.951 E1.62915
G1 X127.925 Y99.447 E1.64154
G1 X127.688 Y102.462 E1.71698
G1 X127.582 Y102.945 E1.72932
G1 X126.531 Y105.788 E1.80493
G1 X126.296 Y106.227 E1.81735
G1 X124.507 Y108.673 E1.89295
G1 X124.162 Y109.029 E1.90531
G1 X121.774 Y110.894 E1.98089
G1 X121.345 Y111.142 E1.99326
G1 X118.543 Y112.283 E2.06872
G1 X118.063 Y112.405 E2.08108
G1 X115.049 Y112.741 E2.15673
G1 X114.553 Y112.727 E2.16911
G1 X111.568 Y112.228 E2.2446
G1 X111.094 Y112.08 E2.25699
G1 X108.355 Y110.782 E2.3326
G1 X107.941 Y110.51 E2.34495
G1 X105.662 Y108.516 E2.42049
G1 X105.347 Y108.157 E2.43241
G1 X103.825 Y105.864 E2.50106
G1 X102.677 Y106.456 E2.53328
G1 X102.256 Y106.61 E2.54446
G1 X101.053 Y106.887 E2.57526
G1 X100.677 Y106.933 E2.5847
G1 X100.199 Y106.876 E2.59671
G1 X99.564 Y106.712 E2.61307
G1 X99.209 Y106.579 E2.62253
G1 X98.89 Y106.375 E2.63197
G1 X98.615 Y106.101 E2.64166
G1 X98.22 Y105.613 E2.65732
G1 X98.014 Y105.295 E2.66677
G1 X97.934 Y105.115 E2.67169
G1 X97.764 Y104.663 E2.68373
G1 X97.669 Y104.296 E2.69319
G1 X97.652 Y103.917 E2.70265
G1 X97.716 Y103.544 E2.71209
G1 X97.856 Y103.192 E2.72154
G1 X97.925 Y103.079 E2.72484
G1 X91.584 Y102.964 E2.88305
G1 X91.566 Y102.963 E2.8835
G1 X86.068 Y102.806 E3.0207
G1 X86.084 Y102.846 E3.02178
G1 X86.15 Y103.219 E3.03123
G1 X86.136 Y103.598 E3.04069
G1 X86.043 Y103.965 E3.05013
G1 X85.876 Y104.305 E3.05958
G1 X85.614 Y104.63 E3.06999
G1 X85.564 Y104.679 E3.07174
G1 X85.267 Y104.914 E3.08119
G1 X84.927 Y105.082 E3.09065
G1 X84.56 Y105.175 E3.10009
G1 X84.181 Y105.189 E3.10955
G1 X83.808 Y105.123 E3.119
G1 X83.457 Y104.981 E3.12845
G1 X83.254 Y104.853 E3.13443
G1 X83.049 Y105.013 E3.14092
G1 X82.727 Y105.213 E3.15037
G1 X82.37 Y105.341 E3.15984
G1 X81.995 Y105.392 E3.16928
G1 X81.617 Y105.363 E3.17873
G1 X81.254 Y105.256 E3.18817
G1 X80.921 Y105.075 E3.19763
G1 X80.695 Y104.891 E3.2049
G1 X80.368 Y104.577 E3.21621
G1 X80.124 Y104.288 E3.22564
G1 X79.946 Y103.953 E3.2351
G1 X79.842 Y103.589 E3.24455
G1 X79.816 Y103.211 E3.254
G1 X79.87 Y102.836 E3.26345
G1 X79.946 Y102.631 E3.2689
G1 X75.618 Y102.508 E3.37691
G1 X75.242 Y102.458 E3.38637
G1 X74.885 Y102.33 E3.39583
G1 X74.564 Y102.13 E3.40527
G1 X74.334 Y101.916 E3.4131
G1 X72.903 Y100.333 E3.46633
G1 X72.68 Y100.027 E3.47578
G1 X72.526 Y99.681 E3.48523
G1 X72.447 Y99.31 E3.49469
G1 X72.449 Y98.931 E3.50414
G1 X72.529 Y98.561 E3.51359
G1 X72.609 Y98.36 E3.51898
G1 X72.72 Y98.124 E3.52549
G1 X72.917 Y97.8 E3.53495
G1 X73.177 Y97.524 E3.54441
G1 X73.489 Y97.309 E3.55386
G1 X73.839 Y97.164 E3.56331
G1 X74.256 Y97.109 E3.5738
G0 F3600 X74.385 Y97.49
G1 F900 X104.182 Y98.266 E4.31734
G1 X104.187 Y98.079 E4.32201
G1 X75.65 Y97.423 E5.03405
G1 X75.319 Y97.375 E5.0424
G1 X75.009 Y97.251 E5.05073
G1 X74.737 Y97.056 E5.05907
G1 X74.52 Y96.803 E5.06739
G1 X74.361 Y96.485 E5.07626
G1 X74.269 Y96.222 E5.08321
G1 X74.197 Y95.896 E5.09154
G1 X74.204 Y95.562 E5.09987
G1 X74.29 Y95.239 E5.10821
G1 X74.451 Y94.946 E5.11655
G1 X74.782 Y94.617 E5.12819
G1 X75.65 Y94.003 E5.15471
G1 X75.943 Y93.844 E5.16303
G1 X76.252 Y93.761 E5.17101
G1 X76.675 Y93.698 E5.18168
G1 X76.917 Y93.683 E5.18772
G1 X87.793 Y93.966 E5.45912
G1 X102.881 Y94.219 E5.83554
G1 X103.473 Y94.169 E5.85036
G1 X103.916 Y93.991 E5.86227
G1 X104.428 Y93.598 E5.87837
G1 X104.935 Y92.951 E5.89888
G1 X104.996 Y92.878 E5.90125
G1 X107.032 Y90.614 E5.97721
G1 X107.328 Y90.365 E5.98685
G1 X109.89 Y88.754 E6.06235
G1 X110.241 Y88.596 E6.07195
G1 X113.152 Y87.742 E6.14763
G1 X113.533 Y87.685 E6.15724
G1 X116.561 Y87.656 E6.23277
G1 X116.944 Y87.706 E6.24241
G1 X119.865 Y88.507 E6.31796
G1 X120.219 Y88.659 E6.32757
G1 X122.808 Y90.223 E6.40302
G1 X123.108 Y90.466 E6.41266
G1 X125.176 Y92.684 E6.4883
G1 X125.398 Y93.001 E6.49796
G1 X126.779 Y95.696 E6.5735
G1 X126.905 Y96.058 E6.58306
G1 X127.503 Y99.03 E6.65868
G1 X127.527 Y99.416 E6.66833
G1 X127.29 Y102.431 E6.74377
G1 X127.207 Y102.806 E6.75335
G1 X126.156 Y105.649 E6.82896
G1 X125.973 Y105.99 E6.83861
G1 X124.184 Y108.436 E6.91421
G1 X123.916 Y108.713 E6.92382
G1 X121.528 Y110.578 E6.9994
G1 X121.194 Y110.772 E7.00904
G1 X118.392 Y111.913 E7.08451
G1 X118.019 Y112.007 E7.0941
G1 X115.005 Y112.343 E7.16975
G1 X114.619 Y112.333 E7.17939
G1 X111.634 Y111.834 E7.25488
G1 X111.265 Y111.718 E7.26453
G1 X108.526 Y110.42 E7.34014
G1 X108.204 Y110.209 E7.34974
G1 X105.925 Y108.215 E7.42528
G1 X105.681 Y107.935 E7.43454
G1 X103.997 Y105.399 E7.51048
G1 X103.949 Y105.356 E7.51209
G1 X103.919 Y105.322 E7.51322
G1 X103.838 Y105.394 E7.51592
G1 X103.686 Y105.485 E7.52034
G1 X102.494 Y106.1 E7.5538
G1 X102.166 Y106.22 E7.56251
G1 X100.963 Y106.497 E7.59331
G1 X100.631 Y106.533 E7.60164
G1 X100.299 Y106.489 E7.60999
G1 X99.664 Y106.325 E7.62635
G1 X99.353 Y106.203 E7.63469
G1 X99.079 Y106.011 E7.64303
G1 X98.926 Y105.85 E7.64857
G1 X98.531 Y105.362 E7.66423
G1 X98.309 Y104.974 E7.67539
G1 X98.139 Y104.522 E7.68743
G1 X98.059 Y104.197 E7.69578
G1 X98.059 Y103.863 E7.70411
G1 X98.138 Y103.539 E7.71243
G1 X98.306 Y103.221 E7.7214
G1 X98.429 Y103.047 E7.72672
G1 X98.653 Y102.799 E7.73505
G1 X98.806 Y102.695 E7.73967
G1 X91.592 Y102.564 E7.91965
G1 X91.577 Y102.563 E7.92003
G1 X85.363 Y102.386 E8.0751
G1 X85.518 Y102.566 E8.08103
G1 X85.669 Y102.864 E8.08936
G1 X85.745 Y103.189 E8.09768
G1 X85.742 Y103.523 E8.10602
G1 X85.66 Y103.847 E8.11435
G1 X85.504 Y104.142 E8.12268
G1 X85.334 Y104.344 E8.12926
G1 X85.284 Y104.393 E8.13101
G1 X85.019 Y104.597 E8.13935
G1 X84.714 Y104.732 E8.14767
G1 X84.385 Y104.791 E8.15601
G1 X84.051 Y104.77 E8.16436
G1 X83.732 Y104.671 E8.17269
G1 X83.469 Y104.517 E8.18029
G1 X83.399 Y104.465 E8.18247
G1 X83.253 Y104.327 E8.18748
G1 X83.184 Y104.4 E8.18999
G1 X82.803 Y104.697 E8.20204
G1 X82.517 Y104.87 E8.21037
G1 X82.198 Y104.969 E8.21871
G1 X81.864 Y104.991 E8.22706
G1 X81.535 Y104.933 E8.23539
G1 X81.23 Y104.798 E8.24371
G1 X80.972 Y104.603 E8.25178
G1 X80.645 Y104.289 E8.26309
G1 X80.434 Y104.03 E8.27142
G1 X80.289 Y103.729 E8.27975
G1 X80.22 Y103.402 E8.28809
G1 X80.231 Y103.068 E8.29643
G1 X80.32 Y102.746 E8.30476
G1 X80.483 Y102.455 E8.31308
G1 X80.672 Y102.252 E8.32
G1 X75.629 Y102.108 E8.44585
G1 X75.299 Y102.059 E8.45417
G1 X74.989 Y101.933 E8.46252
G1 X74.63 Y101.648 E8.47395
G1 X73.199 Y100.065 E8.52718
G1 X73.007 Y99.792 E8.53551
G1 X72.884 Y99.481 E8.54385
G1 X72.838 Y99.15 E8.55219
G1 X72.872 Y98.818 E8.56051
G1 X72.971 Y98.53 E8.56811
G1 X73.082 Y98.294 E8.57461
G1 X73.259 Y98.011 E8.58294
G1 X73.499 Y97.778 E8.59129
G1 X73.786 Y97.608 E8.59961
G1 X74.106 Y97.511 E8.60795
G1 X74.385 Y97.49 E8.61493
G0 F3600 X74.375 Y97.89
G1 F900 X104.572 Y98.676 E9.36845
G1 X104.597 Y97.688 E9.3931
G1 X75.659 Y97.023 E10.11515
G1 X75.381 Y96.977 E10.12218
G1 X75.126 Y96.854 E10.12925
G1 X74.916 Y96.666 E10.13628
G1 X74.738 Y96.353 E10.14526
G1 X74.646 Y96.09 E10.15221
G1 X74.591 Y95.813 E10.15925
G1 X74.616 Y95.532 E10.16629
G1 X74.719 Y95.269 E10.17334
G1 X74.89 Y95.046 E10.18035
G1 X75.013 Y94.944 E10.18433
G1 X75.881 Y94.33 E10.21085
G1 X76.132 Y94.201 E10.21789
G1 X76.311 Y94.157 E10.22249
G1 X76.734 Y94.094 E10.23316
G1 X76.907 Y94.083 E10.23749
G1 X87.783 Y94.366 E10.50888
G1 X102.898 Y94.619 E10.88598
G1 X103.565 Y94.563 E10.90267
G1 X104.117 Y94.341 E10.91752
G1 X104.712 Y93.885 E10.93622
G1 X105.25 Y93.198 E10.95798
G1 X105.293 Y93.145 E10.95969
G1 X107.329 Y90.881 E11.03564
G1 X107.541 Y90.703 E11.04254
G1 X110.103 Y89.092 E11.11804
G1 X110.353 Y88.979 E11.12488
G1 X113.264 Y88.125 E11.20056
G1 X113.536 Y88.085 E11.20742
G1 X116.564 Y88.056 E11.28295
G1 X116.838 Y88.092 E11.28985
G1 X119.759 Y88.893 E11.3654
G1 X120.012 Y89.001 E11.37226
G1 X122.601 Y90.565 E11.44772
G1 X122.815 Y90.739 E11.4546
G1 X124.883 Y92.957 E11.53024
G1 X125.042 Y93.183 E11.53714
G1 X126.423 Y95.878 E11.61267
G1 X126.513 Y96.137 E11.61951
G1 X127.111 Y99.109 E11.69514
G1 X127.128 Y99.384 E11.70201
G1 X126.891 Y102.399 E11.77745
G1 X126.832 Y102.668 E11.78432
G1 X125.781 Y105.511 E11.85993
G1 X125.65 Y105.754 E11.86682
G1 X123.861 Y108.2 E11.94241
G1 X123.67 Y108.398 E11.94927
G1 X121.282 Y110.263 E12.02486
G1 X121.043 Y110.401 E12.03174
G1 X118.241 Y111.542 E12.10721
G1 X117.975 Y111.61 E12.11406
G1 X114.961 Y111.946 E12.18971
G1 X114.685 Y111.938 E12.1966
G1 X111.7 Y111.439 E12.27209
G1 X111.437 Y111.357 E12.27896
G1 X108.698 Y110.059 E12.35457
G1 X108.468 Y109.908 E12.36144
G1 X106.189 Y107.914 E12.43697
G1 X106.014 Y107.714 E12.4436
G1 X104.302 Y105.136 E12.5208
G1 X104.215 Y105.058 E12.52372
G1 X104.033 Y104.842 E12.53076
G1 X103.947 Y104.65 E12.53601
G1 X103.857 Y104.823 E12.54087
G1 X103.662 Y105.027 E12.54791
G1 X103.503 Y105.13 E12.55264
G1 X102.311 Y105.745 E12.5861
G1 X102.076 Y105.831 E12.59234
G1 X100.873 Y106.108 E12.62313
G1 X100.592 Y106.131 E12.63017
G1 X100.399 Y106.101 E12.63504
G1 X99.764 Y105.937 E12.6514
G1 X99.503 Y105.829 E12.65845
G1 X99.237 Y105.598 E12.66723
G1 X98.842 Y105.11 E12.6829
G1 X98.683 Y104.833 E12.69086
G1 X98.513 Y104.381 E12.70291
G1 X98.452 Y104.106 E12.70994
G1 X98.47 Y103.824 E12.71698
G1 X98.632 Y103.452 E12.72711
G1 X98.755 Y103.278 E12.73242
G1 X98.949 Y103.073 E12.73946
G1 X99.192 Y102.93 E12.74649
G1 X99.597 Y102.855 E12.75677
G1 X102.999 Y102.939 E12.84166
G1 X103.277 Y102.986 E12.84869
G1 X103.531 Y103.109 E12.85573
G1 X103.741 Y103.297 E12.86276
G1 X103.89 Y103.537 E12.86981
G1 X103.948 Y103.713 E12.87443
G1 X103.983 Y103.866 E12.87835
G1 X104.082 Y103.642 E12.88446
G1 X104.231 Y103.403 E12.89148
G1 X104.44 Y103.214 E12.89851
G1 X104.62 Y103.128 E12.90349
G1 X104.612 Y102.4 E12.92165
G1 X91.599 Y102.164 E13.24631
G1 X91.588 Y102.164 E13.24659
G1 X75.64 Y101.709 E13.64457
G1 X75.362 Y101.661 E13.65161
G1 X75.109 Y101.537 E13.65864
G1 X74.927 Y101.38 E13.66463
G1 X73.496 Y99.797 E13.71787
G1 X73.338 Y99.563 E13.72491
G1 X73.252 Y99.294 E13.73195
G1 X73.245 Y99.012 E13.73899
G1 X73.333 Y98.7 E13.74708
G1 X73.444 Y98.464 E13.75358
G1 X73.599 Y98.229 E13.7606
G1 X73.814 Y98.045 E13.76766
G1 X74.071 Y97.929 E13.7747
G1 X74.375 Y97.89 E13.78234
G0 F3600 X74.365 Y98.29
G1 F900 X104.961 Y99.086 E14.54582
G1 X105.008 Y97.297 E14.59046
G1 X75.668 Y96.623 E15.32255
G1 X75.455 Y96.578 E15.32798
G1 X75.271 Y96.46 E15.33343
G1 X75.116 Y96.221 E15.34054
G1 X75.024 Y95.958 E15.34749
G1 X74.99 Y95.743 E15.35292
G1 X75.036 Y95.529 E15.35838
G1 X75.155 Y95.346 E15.36382
G1 X75.244 Y95.27 E15.36674
G1 X76.112 Y94.656 E15.39326
G1 X76.37 Y94.553 E15.40019
G1 X76.793 Y94.49 E15.41086
G1 X76.897 Y94.483 E15.41346
G1 X87.773 Y94.766 E15.68486
G1 X102.906 Y95.019 E16.0624
G1 X103.66 Y94.956 E16.08128
G1 X104.318 Y94.692 E16.09896
G1 X104.995 Y94.172 E16.12026
G1 X105.565 Y93.444 E16.14332
G1 X105.591 Y93.413 E16.14433
G1 X107.627 Y91.149 E16.22028
G1 X107.754 Y91.042 E16.22443
G1 X110.316 Y89.431 E16.29992
G1 X110.466 Y89.363 E16.30403
G1 X113.377 Y88.509 E16.3797
G1 X113.54 Y88.485 E16.38381
G1 X116.568 Y88.456 E16.45935
G1 X116.733 Y88.477 E16.4635
G1 X119.654 Y89.278 E16.53906
G1 X119.805 Y89.343 E16.54316
G1 X122.394 Y90.907 E16.61861
G1 X122.523 Y91.012 E16.62276
G1 X124.591 Y93.23 E16.6984
G1 X124.686 Y93.365 E16.70252
G1 X126.067 Y96.06 E16.77806
G1 X126.121 Y96.216 E16.78218
G1 X126.719 Y99.188 E16.8578
G1 X126.729 Y99.353 E16.86193
G1 X126.492 Y102.368 E16.93737
G1 X126.457 Y102.529 E16.94148
G1 X125.406 Y105.372 E17.01709
G1 X125.327 Y105.518 E17.02123
G1 X123.538 Y107.964 E17.09682
G1 X123.423 Y108.083 E17.10095
G1 X121.035 Y109.948 E17.17653
G1 X120.892 Y110.031 E17.18066
G1 X118.09 Y111.172 E17.25613
G1 X117.93 Y111.212 E17.26024
G1 X114.916 Y111.548 E17.33589
G1 X114.751 Y111.544 E17.34001
G1 X111.766 Y111.045 E17.4155
G1 X111.608 Y110.995 E17.41964
G1 X108.869 Y109.697 E17.49524
G1 X108.731 Y109.607 E17.49935
G1 X106.452 Y107.613 E17.57489
G1 X106.347 Y107.493 E17.57887
G1 X104.605 Y104.87 E17.65742
G1 X104.481 Y104.759 E17.66157
G1 X104.347 Y104.587 E17.66701
G1 X104.284 Y104.378 E17.67245
G1 X104.331 Y104.069 E17.68025
G1 X104.448 Y103.803 E17.6875
G1 X104.57 Y103.623 E17.69292
G1 X104.75 Y103.498 E17.69839
G1 X105.024 Y103.453 E17.70532
G1 X105.008 Y102.007 E17.74139
G1 X91.606 Y101.764 E18.07576
G1 X91.6 Y101.764 E18.07591
G1 X75.652 Y101.309 E18.47389
G1 X75.439 Y101.263 E18.47933
G1 X75.224 Y101.111 E18.4859
G1 X73.793 Y99.528 E18.53913
G1 X73.678 Y99.343 E18.54456
G1 X73.638 Y99.128 E18.55002
G1 X73.695 Y98.871 E18.55658
G1 X73.806 Y98.635 E18.56309
G1 X73.933 Y98.457 E18.56854
G1 X74.115 Y98.337 E18.57398
G1 X74.365 Y98.29 E18.58033
G0 F3600 X74.354 Y98.69
G1 F900 X105.351 Y99.497 E19.35381
G1 X105.418 Y96.906 E19.41847
G1 X75.677 Y96.223 E20.16056
G1 X75.56 Y96.181 E20.16366
G1 X75.493 Y96.089 E20.1665
G1 X75.401 Y95.826 E20.17345
G1 X75.399 Y95.701 E20.17656
G1 X75.475 Y95.597 E20.17978
G1 X76.343 Y94.983 E20.2063
G1 X76.429 Y94.948 E20.20862
G1 X76.852 Y94.885 E20.21928
G1 X76.886 Y94.883 E20.22013
G1 X87.762 Y95.166 E20.49153
G1 X102.923 Y95.42 E20.86977
G1 X103.751 Y95.35 E20.8905
G1 X104.516 Y95.043 E20.91106
G1 X105.281 Y94.456 E20.93512
G1 X105.88 Y93.691 E20.95935
G1 X105.888 Y93.68 E20.95969
G1 X107.924 Y91.416 E21.03565
G1 X107.967 Y91.381 E21.03703
G1 X110.529 Y89.77 E21.11252
G1 X110.579 Y89.747 E21.1139
G1 X113.49 Y88.893 E21.18957
G1 X113.544 Y88.885 E21.19093
G1 X116.572 Y88.856 E21.26647
G1 X116.627 Y88.863 E21.26786
G1 X119.548 Y89.664 E21.34341
G1 X119.598 Y89.686 E21.34477
G1 X122.187 Y91.25 E21.42022
G1 X122.23 Y91.285 E21.42161
G1 X124.298 Y93.503 E21.49725
G1 X124.33 Y93.548 E21.49863
G1 X125.711 Y96.243 E21.57417
G1 X125.729 Y96.295 E21.57554
G1 X126.327 Y99.267 E21.65117
G1 X126.33 Y99.322 E21.65254
G1 X126.093 Y102.337 E21.72798
G1 X126.082 Y102.39 E21.72933
G1 X125.031 Y105.233 E21.80494
G1 X125.004 Y105.282 E21.80634
G1 X123.215 Y107.728 E21.88193
G1 X123.177 Y107.768 E21.88331
G1 X120.789 Y109.633 E21.95889
