;FLAVOR:Marlin
;TIME:3369
;Filament used: 2.66823m
;Layer height: 0.15
;MINX:82.373
;MINY:103.373
;MINZ:0.15
;MAXX:152.627
;MAXY:131.627
;MAXZ:24
;TARGET_MACHINE.NAME:ELEGOO NEPTUNE 3 Pro
;Generated with Cura_SteamEngine 5.6.0
M140 S70
M105
M190 S70
M104 S210
M105
M109 S210
M82 ;absolute extrusion mode
;ELEGOO NEPTUNE 3 Pro
M220 S100 ;Set the feed speed to 100%
M221 S100 ;Set the flow rate to 100%
G90
G28 ;home
;M420 S1 Z10;Uncomment to enable progressive compensation height of 10mm
G92 E0 ;Reset Extruder
G1 Z0.45 F300
G1 X1.5 Y20 F5000.0 ;Move to start position
G1 Y120.0 F600.0 E15 ;Draw the first line
G1 X0.5 F1000.0 ;Move to side a little
G1 Y20 F600 E30 ;Draw the second line
G92 E0 ;Reset Extruder
G92 E0
G92 E0
G1 F1500 E-1
;LAYER_COUNT:160
;LAYER:0
M107
M204 S500
G0 F6000 X84.281 Y108.59 Z0.15
;TYPE:SKIRT
G1 F1500 E0
G1 F2100 X85.397 Y107.901 E0.04466
G1 X85.961 Y107.658 E0.06557
G1 X87.232 Y107.373 E0.10992
G1 X101.408 Y107.398 E0.59262
G1 X102.301 Y107.519 E0.6233
G1 X102.847 Y107.721 E0.64312
G1 X103.182 Y107.393 E0.65909
G1 X104.237 Y106.741 E0.70132
G1 X104.8 Y106.499 E0.72218
G1 X106.077 Y106.213 E0.76674
G1 X110.868 Y106.238 E0.92988
G1 X111.828 Y106.368 E0.96286
G1 X112.525 Y106.654 E0.98852
G1 X112.805 Y106.414 E1.00107
G1 X113.723 Y105.86 E1.03758
G1 X114.566 Y105.546 E1.06821
G1 X115.561 Y105.373 E1.1026
G1 X119.457 Y105.398 E1.23526
G1 X120.414 Y105.527 E1.26814
G1 X121.518 Y105.97 E1.30865
G1 X122.348 Y106.517 E1.3425
G1 X122.482 Y106.634 E1.34855
G1 X122.807 Y106.497 E1.36056
G1 X124.077 Y106.213 E1.40487
G1 X128.497 Y106.227 E1.55538
G1 X128.781 Y105.683 E1.57627
G1 X129.624 Y104.71 E1.62011
G1 X130.661 Y104.001 E1.66288
G1 X131.704 Y103.571 E1.7013
G1 X132.784 Y103.373 E1.73868
G1 X141.617 Y103.389 E2.03945
G1 X142.645 Y103.521 E2.07474
G1 X143.754 Y103.968 E2.11545
G1 X144.521 Y104.45 E2.1463
G1 X145.384 Y105.254 E2.18646
G1 X146.228 Y106.554 E2.23923
G1 X146.433 Y107.369 E2.26785
G1 X147.671 Y107.373 E2.31
G1 X149.147 Y107.672 E2.36128
G1 X150.342 Y108.326 E2.40767
G1 X151.325 Y109.141 E2.45115
G1 X152.063 Y110.329 E2.49877
G1 X152.342 Y110.958 E2.5222
G1 X152.627 Y112.238 E2.56685
G1 X152.602 Y122.708 E2.92335
G1 X152.472 Y123.667 E2.95631
G1 X152.032 Y124.76 E2.99643
G1 X151.451 Y125.654 E3.03273
G1 X150.715 Y126.411 E3.06868
G1 X149.649 Y127.088 E3.11168
G1 X149.054 Y127.336 E3.13363
G1 X147.822 Y127.62 E3.17668
G1 X146.412 Y127.639 E3.22469
G1 X146.208 Y128.399 E3.25149
G1 X145.664 Y129.301 E3.28735
G1 X145.102 Y130.022 E3.31848
G1 X144.347 Y130.672 E3.3524
G1 X143.039 Y131.381 E3.40306
G1 X141.58 Y131.627 E3.45344
G1 X132.784 Y131.602 E3.75295
G1 X131.826 Y131.472 E3.78587
G1 X130.743 Y131.035 E3.82563
G1 X129.991 Y130.565 E3.85583
G1 X129.124 Y129.782 E3.89561
G1 X128.481 Y128.786 E3.93597
G1 X124.131 Y128.762 E4.08409
G1 X123.172 Y128.632 E4.11705
G1 X122.495 Y128.356 E4.14194
G1 X122.053 Y128.741 E4.1619
G1 X120.984 Y129.307 E4.20309
G1 X119.681 Y129.627 E4.24877
G1 X115.543 Y129.602 E4.38967
G1 X114.586 Y129.473 E4.42256
G1 X113.482 Y129.03 E4.46306
G1 X112.652 Y128.483 E4.49691
G1 X112.518 Y128.366 E4.50296
G1 X112.193 Y128.503 E4.51497
G1 X110.922 Y128.787 E4.55932
G1 X106.132 Y128.762 E4.72242
G1 X105.173 Y128.632 E4.75537
G1 X104.083 Y128.193 E4.79538
G1 X103.248 Y127.651 E4.82928
G1 X102.865 Y127.29 E4.8472
G1 X102.68 Y127.355 E4.85388
G1 X101.467 Y127.627 E4.89621
G1 X87.292 Y127.602 E5.37887
G1 X86.333 Y127.472 E5.41182
G1 X85.243 Y127.033 E5.45183
G1 X84.408 Y126.491 E5.48573
G1 X83.59 Y125.719 E5.52403
G1 X82.901 Y124.603 E5.56869
G1 X82.658 Y124.039 E5.5896
G1 X82.373 Y122.767 E5.63398
G1 X82.398 Y112.292 E5.99066
G1 X82.528 Y111.333 E6.02361
G1 X82.967 Y110.243 E6.06362
G1 X83.509 Y109.408 E6.09752
G1 X84.281 Y108.59 E6.13582
G0 F6000 X84.63 Y109.016
G1 F2100 X85.613 Y108.403 E6.17526
G1 X86.131 Y108.18 E6.19447
G1 X87.294 Y107.919 E6.23505
G1 X101.335 Y107.939 E6.71315
G1 X102.228 Y108.06 E6.74383
G1 X102.988 Y108.366 E6.77173
G1 X103.471 Y107.856 E6.79565
G1 X104.453 Y107.243 E6.83506
G1 X104.971 Y107.02 E6.85427
G1 X106.137 Y106.759 E6.89495
G1 X110.795 Y106.779 E7.05356
G1 X111.686 Y106.9 E7.08418
G1 X112.637 Y107.29 E7.11917
G1 X113.087 Y106.881 E7.13988
G1 X113.957 Y106.356 E7.17448
G1 X114.711 Y106.075 E7.20188
G1 X115.607 Y105.919 E7.23285
G1 X119.384 Y105.939 E7.36145
G1 X120.273 Y106.059 E7.392
G1 X121.265 Y106.457 E7.42839
G1 X122.048 Y106.973 E7.46032
G1 X122.371 Y107.289 E7.47571
G1 X122.926 Y107.03 E7.49656
G1 X124.137 Y106.759 E7.53882
G1 X128.838 Y106.774 E7.69889
G1 X129.194 Y106.041 E7.72664
G1 X129.992 Y105.12 E7.76813
G1 X130.922 Y104.484 E7.80649
G1 X131.86 Y104.097 E7.84104
G1 X132.832 Y103.919 E7.87469
G1 X141.548 Y103.931 E8.17147
G1 X142.509 Y104.054 E8.20446
G1 X143.505 Y104.456 E8.24103
G1 X144.187 Y104.884 E8.26845
G1 X144.962 Y105.606 E8.30452
G1 X145.721 Y106.776 E8.352
G1 X146.008 Y107.914 E8.39196
G1 X147.617 Y107.919 E8.44675
G1 X148.957 Y108.19 E8.4933
G1 X150.036 Y108.781 E8.53519
G1 X150.907 Y109.503 E8.57371
G1 X151.599 Y110.617 E8.61837
G1 X151.821 Y111.129 E8.63737
G1 X152.081 Y112.298 E8.67815
G1 X152.061 Y122.635 E9.03012
G1 X151.94 Y123.528 E9.06081
G1 X151.546 Y124.506 E9.09671
G1 X151.025 Y125.308 E9.12927
G1 X150.365 Y125.987 E9.16152
G1 X149.397 Y126.601 E9.20055
G1 X148.887 Y126.814 E9.21937
G1 X147.756 Y127.075 E9.25889
G1 X145.992 Y127.099 E9.31896
G1 X145.702 Y128.18 E9.35707
G1 X145.196 Y129.019 E9.39043
G1 X144.704 Y129.644 E9.41752
G1 X144.035 Y130.22 E9.44758
G1 X142.858 Y130.858 E9.49316
G1 X141.537 Y131.081 E9.53878
G1 X132.857 Y131.061 E9.83433
G1 X131.966 Y130.94 E9.86495
G1 X130.995 Y130.549 E9.90059
G1 X130.319 Y130.126 E9.92775
G1 X129.544 Y129.426 E9.96331
G1 X128.925 Y128.467 E10.00217
G1 X128.828 Y128.241 E10.01054
G1 X124.205 Y128.221 E10.16796
G1 X123.315 Y128.1 E10.19854
G1 X122.391 Y127.724 E10.23251
G1 X121.743 Y128.287 E10.26174
G1 X120.787 Y128.793 E10.29857
G1 X119.617 Y129.081 E10.3396
G1 X115.616 Y129.061 E10.47583
G1 X114.727 Y128.941 E10.50638
G1 X113.735 Y128.543 E10.54277
G1 X112.952 Y128.027 E10.5747
G1 X112.629 Y127.711 E10.59009
G1 X112.074 Y127.97 E10.61094
G1 X110.863 Y128.241 E10.6532
G1 X106.205 Y128.221 E10.8118
G1 X105.312 Y128.1 E10.84249
G1 X104.337 Y127.707 E10.87828
G1 X103.588 Y127.221 E10.90869
G1 X102.989 Y126.655 E10.93675
G1 X102.561 Y126.822 E10.95239
G1 X101.406 Y127.081 E10.99269
G1 X87.365 Y127.061 E11.47079
G1 X86.472 Y126.94 E11.50148
G1 X85.497 Y126.547 E11.53727
G1 X84.748 Y126.061 E11.56767
G1 X84.016 Y125.37 E11.60195
G1 X83.403 Y124.387 E11.64139
G1 X83.18 Y123.869 E11.6606
G1 X82.919 Y122.706 E11.70118
G1 X82.939 Y112.365 E12.0533
G1 X83.06 Y111.472 E12.08398
G1 X83.453 Y110.497 E12.11977
G1 X83.939 Y109.748 E12.15018
G1 X84.63 Y109.016 E12.18445
G0 F6000 X84.98 Y109.441
G1 F2100 X85.902 Y108.866 E12.22145
G1 X86.297 Y108.702 E12.23601
G1 X87.355 Y108.465 E12.27293
G1 X101.261 Y108.48 E12.74643
G1 X102.085 Y108.592 E12.77475
G1 X102.91 Y108.924 E12.80503
G1 X103.127 Y109.055 E12.81366
G1 X103.241 Y108.894 E12.82038
G1 X103.82 Y108.281 E12.84909
G1 X104.742 Y107.706 E12.88609
G1 X105.137 Y107.542 E12.90065
G1 X106.197 Y107.305 E12.93763
G1 X110.721 Y107.32 E13.09168
G1 X111.545 Y107.432 E13.11999
G1 X112.367 Y107.763 E13.15017
G1 X112.709 Y107.974 E13.16385
G1 X113.369 Y107.348 E13.19482
G1 X114.191 Y106.852 E13.22751
G1 X114.856 Y106.604 E13.25168
G1 X115.654 Y106.465 E13.27926
G1 X119.311 Y106.48 E13.40378
G1 X120.132 Y106.591 E13.43199
G1 X121.012 Y106.944 E13.46428
G1 X121.748 Y107.429 E13.49429
G1 X122.287 Y107.987 E13.52071
G1 X122.754 Y107.693 E13.5395
G1 X123.045 Y107.563 E13.55035
G1 X124.197 Y107.305 E13.59055
G1 X128.72 Y107.32 E13.74455
G1 X129.152 Y107.378 E13.7594
G1 X129.652 Y106.347 E13.79841
G1 X130.36 Y105.53 E13.83522
G1 X131.183 Y104.967 E13.86918
G1 X132.016 Y104.624 E13.89985
G1 X132.882 Y104.465 E13.92983
G1 X141.478 Y104.473 E14.22253
G1 X142.373 Y104.588 E14.25325
G1 X143.252 Y104.942 E14.28552
G1 X143.853 Y105.319 E14.30967
G1 X144.541 Y105.961 E14.34172
G1 X145.214 Y106.998 E14.38381
G1 X145.51 Y108.17 E14.42497
G1 X145.534 Y108.458 E14.43481
G1 X147.563 Y108.465 E14.5039
G1 X148.767 Y108.708 E14.54572
G1 X149.73 Y109.236 E14.58312
G1 X150.489 Y109.865 E14.61668
G1 X151.098 Y110.834 E14.65565
G1 X151.299 Y111.298 E14.67287
G1 X151.535 Y112.358 E14.70985
G1 X151.52 Y122.561 E15.05726
G1 X151.408 Y123.385 E15.08557
G1 X151.059 Y124.253 E15.11743
G1 X150.595 Y124.967 E15.14642
G1 X150.019 Y125.559 E15.17455
G1 X149.104 Y126.14 E15.21145
G1 X148.764 Y126.282 E15.224
G1 X147.69 Y126.53 E15.26153
G1 X145.51 Y126.559 E15.33577
G1 X145.462 Y126.971 E15.34989
G1 X145.195 Y127.962 E15.38484
G1 X144.728 Y128.737 E15.41565
G1 X144.308 Y129.264 E15.43859
G1 X143.723 Y129.768 E15.46489
G1 X142.677 Y130.335 E15.5054
G1 X141.494 Y130.535 E15.54625
G1 X132.931 Y130.52 E15.83782
G1 X132.109 Y130.408 E15.86607
G1 X131.243 Y130.06 E15.89785
G1 X130.647 Y129.687 E15.92179
G1 X129.964 Y129.07 E15.95313
G1 X129.384 Y128.171 E15.98956
G1 X129.176 Y127.612 E16.00987
G1 X128.742 Y127.695 E16.02491
G1 X124.279 Y127.68 E16.17688
G1 X123.455 Y127.568 E16.2052
G1 X122.633 Y127.237 E16.23537
G1 X122.305 Y127.036 E16.24847
G1 X122.181 Y127.184 E16.25504
G1 X121.432 Y127.834 E16.28881
G1 X120.592 Y128.279 E16.32118
G1 X119.552 Y128.535 E16.35765
G1 X115.689 Y128.52 E16.48918
G1 X114.868 Y128.409 E16.51739
G1 X113.988 Y128.056 E16.54968
G1 X113.252 Y127.571 E16.57969
G1 X112.713 Y127.013 E16.60611
G1 X112.246 Y127.307 E16.6249
G1 X111.955 Y127.437 E16.63575
G1 X110.803 Y127.695 E16.67595
G1 X106.279 Y127.68 E16.82999
G1 X105.455 Y127.568 E16.8583
G1 X104.587 Y127.219 E16.89016
G1 X103.928 Y126.791 E16.91692
G1 X103.332 Y126.228 E16.94483
G1 X103.124 Y125.931 E16.95718
G1 X102.703 Y126.19 E16.97401
G1 X102.442 Y126.289 E16.98351
G1 X101.345 Y126.535 E17.02179
G1 X87.439 Y126.52 E17.4953
G1 X86.615 Y126.408 E17.52361
G1 X85.747 Y126.059 E17.55547
G1 X85.088 Y125.631 E17.58222
G1 X84.441 Y125.02 E17.61252
G1 X83.866 Y124.098 E17.64952
G1 X83.702 Y123.703 E17.66408
G1 X83.465 Y122.645 E17.701
G1 X83.48 Y112.439 E18.04852
G1 X83.592 Y111.615 E18.07683
G1 X83.941 Y110.747 E18.10869
G1 X84.369 Y110.088 E18.13544
G1 X84.98 Y109.441 E18.16575
G0 F6000 X85.329 Y109.867
G1 F2100 X86.125 Y109.365 E18.19779
G1 X86.416 Y109.235 E18.20864
G1 X87.416 Y109.011 E18.24354
G1 X101.187 Y109.021 E18.71244
G1 X101.942 Y109.124 E18.73839
G1 X102.706 Y109.431 E18.76642
G1 X103.286 Y109.816 E18.79012
G1 X103.638 Y109.269 E18.81227
G1 X104.169 Y108.707 E18.8386
G1 X104.965 Y108.205 E18.87064
G1 X105.256 Y108.075 E18.8815
G1 X106.257 Y107.851 E18.91642
G1 X110.647 Y107.861 E19.0659
G1 X111.402 Y107.964 E19.09185
G1 X112.163 Y108.27 E19.11978
G1 X112.689 Y108.611 E19.14112
G1 X112.835 Y108.737 E19.14769
G1 X113.12 Y108.329 E19.16464
G1 X113.698 Y107.787 E19.19162
G1 X114.434 Y107.344 E19.22087
G1 X114.996 Y107.134 E19.24129
G1 X115.701 Y107.011 E19.26566
G1 X119.238 Y107.021 E19.3861
G1 X119.991 Y107.123 E19.41197
G1 X120.759 Y107.431 E19.44015
G1 X121.397 Y107.851 E19.46616
G1 X121.972 Y108.447 E19.49435
G1 X122.14 Y108.725 E19.50541
G1 X123.045 Y108.155 E19.54183
G1 X123.217 Y108.084 E19.54817
G1 X124.257 Y107.851 E19.58446
G1 X128.647 Y107.861 E19.73394
G1 X129.332 Y107.954 E19.75748
G1 X129.589 Y108.038 E19.76668
G1 X129.709 Y107.481 E19.78608
G1 X130.111 Y106.651 E19.81749
G1 X130.726 Y105.941 E19.84947
G1 X131.444 Y105.45 E19.87909
G1 X132.172 Y105.15 E19.9059
G1 X132.931 Y105.011 E19.93217
G1 X141.409 Y105.015 E20.22085
G1 X142.237 Y105.121 E20.24927
G1 X142.999 Y105.428 E20.27725
G1 X143.522 Y105.756 E20.29827
G1 X144.119 Y106.313 E20.32607
G1 X144.707 Y107.22 E20.36287
G1 X144.981 Y108.304 E20.40094
G1 X145.005 Y108.922 E20.422
G1 X145.303 Y109.003 E20.43252
G1 X147.509 Y109.011 E20.50763
G1 X148.575 Y109.226 E20.54466
G1 X149.423 Y109.691 E20.57759
G1 X150.073 Y110.23 E20.60634
G1 X150.636 Y111.125 E20.64235
G1 X150.766 Y111.417 E20.65323
G1 X150.989 Y112.418 E20.68815
G1 X150.979 Y122.487 E21.031
G1 X150.876 Y123.242 E21.05695
G1 X150.57 Y124.003 E21.08487
G1 X150.167 Y124.624 E21.11008
G1 X149.673 Y125.131 E21.13418
G1 X148.811 Y125.679 E21.16897
G1 X148.641 Y125.75 E21.17524
G1 X147.624 Y125.985 E21.21078
G1 X145.315 Y126.016 E21.28941
G1 X145.01 Y126.046 E21.29984
G1 X144.935 Y126.829 E21.32663
G1 X144.688 Y127.746 E21.35896
G1 X144.301 Y128.397 E21.38475
G1 X143.916 Y128.88 E21.40578
G1 X143.408 Y129.318 E21.42862
G1 X142.496 Y129.812 E21.46394
G1 X141.451 Y129.989 E21.50003
G1 X133.005 Y129.979 E21.78761
G1 X132.25 Y129.876 E21.81356
G1 X131.493 Y129.572 E21.84134
G1 X130.975 Y129.248 E21.86214
G1 X130.384 Y128.714 E21.88926
G1 X129.876 Y127.926 E21.92119
G1 X129.596 Y127.175 E21.94848
G1 X129.561 Y126.966 E21.95569
G1 X128.743 Y127.149 E21.98423
G1 X124.353 Y127.139 E22.13371
G1 X123.598 Y127.036 E22.15966
G1 X122.837 Y126.73 E22.18759
G1 X122.158 Y126.29 E22.21514
G1 X121.823 Y126.772 E22.23513
G1 X121.123 Y127.38 E22.2667
G1 X120.394 Y127.766 E22.29478
G1 X119.488 Y127.989 E22.32655
G1 X115.762 Y127.979 E22.45342
G1 X115.009 Y127.877 E22.4793
G1 X114.241 Y127.569 E22.50747
G1 X113.603 Y127.149 E22.53348
G1 X113.028 Y126.553 E22.56168
G1 X112.86 Y126.275 E22.57274
G1 X111.955 Y126.845 E22.60916
G1 X111.783 Y126.916 E22.6155
G1 X110.743 Y127.149 E22.65179
G1 X106.353 Y127.139 E22.80127
G1 X105.598 Y127.036 E22.82721
G1 X104.837 Y126.73 E22.85514
G1 X104.268 Y126.361 E22.87823
G1 X103.707 Y125.831 E22.90451
G1 X103.294 Y125.176 E22.93088
G1 X102.495 Y125.685 E22.96313
G1 X102.323 Y125.756 E22.96947
G1 X101.284 Y125.989 E23.00573
G1 X87.513 Y125.979 E23.47463
G1 X86.758 Y125.876 E23.50058
G1 X85.997 Y125.57 E23.5285
G1 X85.428 Y125.201 E23.5516
G1 X84.867 Y124.671 E23.57788
G1 X84.365 Y123.875 E23.60992
G1 X84.235 Y123.584 E23.62077
G1 X84.011 Y122.584 E23.65567
G1 X84.021 Y112.513 E23.99858
G1 X84.124 Y111.758 E24.02453
G1 X84.43 Y110.997 E24.05246
G1 X84.799 Y110.428 E24.07555
G1 X85.329 Y109.867 E24.10183
G0 F6000 X85.679 Y110.292
G1 F2100 X86.416 Y109.827 E24.1315
G1 X86.588 Y109.756 E24.13784
G1 X87.477 Y109.557 E24.16886
G1 X101.114 Y109.562 E24.6332
G1 X101.799 Y109.655 E24.65674
G1 X102.453 Y109.918 E24.68074
G1 X102.932 Y110.229 E24.70018
G1 X103.365 Y110.638 E24.72046
G1 X103.476 Y110.789 E24.72685
G1 X103.758 Y110.087 E24.75261
G1 X104.069 Y109.608 E24.77205
G1 X104.519 Y109.132 E24.79436
G1 X105.256 Y108.667 E24.82403
G1 X105.428 Y108.596 E24.83036
G1 X106.317 Y108.397 E24.86138
G1 X110.574 Y108.402 E25.00633
G1 X111.259 Y108.495 E25.02987
G1 X111.913 Y108.758 E25.05388
G1 X112.392 Y109.069 E25.07332
G1 X112.825 Y109.478 E25.0936
G1 X112.984 Y109.702 E25.10296
G1 X113.307 Y109.009 E25.12899
G1 X113.494 Y108.727 E25.14051
G1 X114.028 Y108.226 E25.16544
G1 X114.716 Y107.812 E25.19278
G1 X115.09 Y107.672 E25.20638
G1 X115.748 Y107.557 E25.22913
G1 X119.165 Y107.562 E25.34548
G1 X119.85 Y107.655 E25.36901
G1 X120.506 Y107.918 E25.39308
G1 X121.046 Y108.273 E25.41508
G1 X121.579 Y108.826 E25.44124
G1 X122.026 Y109.676 E25.47394
G1 X122.137 Y109.523 E25.48037
G1 X122.577 Y109.095 E25.50127
G1 X123.336 Y108.617 E25.53182
G1 X124.317 Y108.397 E25.56605
G1 X128.574 Y108.402 E25.711
G1 X129.259 Y108.495 E25.73454
G1 X129.864 Y108.738 E25.75674
G1 X130.093 Y108.875 E25.76582
G1 X130.089 Y108.346 E25.78384
G1 X130.2 Y107.719 E25.80552
G1 X130.57 Y106.955 E25.83442
G1 X131.092 Y106.352 E25.86158
G1 X131.705 Y105.933 E25.88686
G1 X132.327 Y105.677 E25.90976
G1 X132.981 Y105.557 E25.93241
G1 X141.34 Y105.557 E26.21703
G1 X142.097 Y105.654 E26.24302
